icon/ir/add-media-video.svg

<svg stroke-width="1.5" viewBox="0 0 24 24" fill="none" xmlns="http://www.w3.org/2000/svg" height="1em" width="1em">
  <path d="M13 21H3.6C3.26863 21 3 20.7314 3 20.4V3.6C3 3.26863 3.26863 3 3.6 3H20.4C20.7314 3 21 3.26863 21 3.6V13" stroke="currentColor" stroke-linecap="round" stroke-linejoin="round"/>
  <path d="M16 19H19M22 19H19M19 19V16M19 19V22" stroke="currentColor" stroke-linecap="round" stroke-linejoin="round"/>
  <path d="M9.89768 8.51296C9.49769 8.28439 9 8.57321 9 9.03391V14.9661C9 15.4268 9.49769 15.7156 9.89768 15.487L15.0883 12.5209C15.4914 12.2906 15.4914 11.7094 15.0883 11.4791L9.89768 8.51296Z" stroke="currentColor" stroke-linecap="round" stroke-linejoin="round"/>
</svg>

<svg width="24" height="24" stroke-width="1.5" fill="none" xmlns="http://www.w3.org/2000/svg"><path d="M13 21H3.6a.6.6 0 0 1-.6-.6V3.6a.6.6 0 0 1 .6-.6h16.8a.6.6 0 0 1 .6.6V13M16 19h3m3 0h-3m0 0v-3m0 3v3" stroke="currentColor" stroke-linecap="round" stroke-linejoin="round"/><path d="M9.898 8.513a.6.6 0 0 0-.898.52v5.933a.6.6 0 0 0 .898.521l5.19-2.966a.6.6 0 0 0 0-1.042l-5.19-2.966Z" stroke="currentColor" stroke-linecap="round" stroke-linejoin="round"/></svg>
